X:1
T:Title
%%score { ( 1 3 5 ) | ( 2 4 6 ) }
L:1/8
M:3/4
K:E
V:1 treble nm="Grand Piano"
V:3 treble 
V:5 treble 
V:2 treble 
V:4 treble 
V:6 treble 
V:1
 z2 z2[Q:1/4=100] B>B | [GB]4 z2 | z2 E2 B>e | [Bd]4 z2 |[M:2/4] G4 |[M:1/4] B>B | %6
[M:3/4] [GB]4 z2 | [GB]4 z2 | [Bd]4 z2 |[M:2/4] E4 |[M:1/4] B>e |[M:3/4] [Ad]3 c (3ABc | [GB]4 z2 | %13
 [DB]4 z2 |[M:2/4] [B,EG]4 |[M:1/4] G>B |[M:3/4] [Ac]-[EA-c-] [Ac]A (3[ce]dc | %17
 [GB]-[EG-B-] [B,GB]2 GG | [DB]4 z2 |[M:2/4] [G,E]4 |] %20
V:2
 z2 z2 G>G | E,,2 z[K:treble] E (3FGA | z2 z2[K:treble] [G,B,E]2 | z2 [A,B,]2[K:treble] [A,B,D]2 | %4
[M:2/4][K:bass] [E,,E,]2 [G,B,]2 |[M:1/4][K:treble] G>G | %6
[M:3/4][K:bass] [E,,E,]2 z[K:treble] E (3FGA | E,,2 G,2 [G,B,E]2 | z2 [A,B,]2[K:treble] [A,B,]2 | %9
[M:2/4][K:bass] [E,,E,]4 |[M:1/4][K:treble] G>G |[M:3/4] B,B, z A (3FGA | E,E, E,2 E>E | %13
 B,,B,, B,,B,, B,,>B,, |[M:2/4] E,4 |[M:1/4][K:treble] E>G |[M:3/4] z2 z2 E2 | E,E, E,2 EE | %18
 B,,B,, B,,B,, B,,>B,, |[M:2/4] E,4 |] %20
V:3
 x6 | z2 EG (3ABc | [GB]4 z2 | z2 z c B>A |[M:2/4] E2 E2 |[M:1/4] x2 |[M:3/4] z2 EG (3ABc | %7
 z2 [B,E]2 [GB]>[Ge] | z2 z c A>F |[M:2/4] x4 |[M:1/4] x2 |[M:3/4] x6 | EE B,2 G>G | %13
 B,B, B,[B,DF] [B,EG]>[B,FA] |[M:2/4] x4 |[M:1/4] x2 |[M:3/4] .E2 E2 z2 | .E2 z2 z2 | %18
 B,B, B,[B,FA] [B,EG]>[A,DF] |[M:2/4] x4 |] %20
V:4
 x6 | z2 [G,B,]2[K:treble] [G,B,E]2 | [E,,E,]2 [G,B,]2[K:treble] G>G | %3
 [B,,,B,,]2 z[K:treble] A G>F |[M:2/4][K:bass] x4 |[M:1/4][K:treble] [G,B,E]2 | %6
[M:3/4][K:bass] z2 [G,B,]2[K:treble] [G,B,E]2 | x6 | [B,,,B,,]2 z[K:treble] A [DF]>D | %9
[M:2/4][K:bass] x4 |[M:1/4][K:treble] x2 |[M:3/4] z2 B,2 [B,D]2 | x6 | x6 |[M:2/4] x4 | %15
[M:1/4][K:treble] x2 |[M:3/4] A,A, A,2 (3z BA | x6 | x6 |[M:2/4] x4 |] %20
V:5
 x6 | x6 | x6 | z2 D2 z2 |[M:2/4] x4 |[M:1/4] x2 |[M:3/4] x6 | x6 | z2 D2 z2 |[M:2/4] x4 | %10
[M:1/4] x2 |[M:3/4] x6 | x6 | x6 |[M:2/4] x4 |[M:1/4] x2 |[M:3/4] x6 | x6 | x6 |[M:2/4] x4 |] %20
V:6
 x6 | x3[K:treble] x3 | x4[K:treble] x2 | x3[K:treble] x3 |[M:2/4][K:bass] x4 | %5
[M:1/4][K:treble] x2 |[M:3/4][K:bass] x3[K:treble] x3 | x6 | x3[K:treble] x3 |[M:2/4][K:bass] x4 | %10
[M:1/4][K:treble] x2 |[M:3/4] x6 | x6 | x6 |[M:2/4] x4 |[M:1/4][K:treble] x2 |[M:3/4] z2 z2 A,2 | %17
 x6 | x6 |[M:2/4] x4 |] %20

